src/assets/dark/NoData.svg

<svg width="202" height="202" viewBox="0 0 202 202" fill="none" xmlns="http://www.w3.org/2000/svg">
<g id="no tasks yet">
<g id="no task yet">
<g id="empty illustration">
<circle id="Ellipse 88" cx="101" cy="100.94" r="100.502" fill="#131145"/>
<path id="Vector" fill-rule="evenodd" clip-rule="evenodd" d="M162.45 162.866L164.25 161.836L162.41 160.876L161.39 159.076L160.42 160.906L158.62 161.936L160.46 162.906L161.49 164.706L162.45 162.866Z" fill="#403D85"/>
<g id="Group 2102">
<path id="Vector_2" d="M120.317 31.1719C120.797 31.1719 120.797 30.4219 120.317 30.4219C119.827 30.4219 119.827 31.1719 120.317 31.1719Z" fill="#403D85"/>
<path id="Vector_3" d="M109.227 40.1816C109.707 40.1816 109.707 39.4316 109.227 39.4316C108.747 39.4316 108.747 40.1816 109.227 40.1816Z" fill="#403D85"/>
<path id="Vector_4" d="M132.097 44.5713C132.577 44.5713 132.577 43.8213 132.097 43.8213C131.617 43.8213 131.617 44.5713 132.097 44.5713Z" fill="#403D85"/>
<path id="Vector_5" d="M121.007 44.1113C121.487 44.1113 121.487 43.3613 121.007 43.3613C120.527 43.3613 120.527 44.1113 121.007 44.1113Z" fill="#403D85"/>
<path id="Vector_6" d="M151.737 55.6611C152.217 55.6611 152.217 54.9111 151.737 54.9111C151.247 54.9111 151.247 55.6611 151.737 55.6611Z" fill="#403D85"/>
<path id="Vector_7" d="M151.497 45.7314C151.977 45.7314 151.977 44.9814 151.497 44.9814C151.017 44.9814 151.017 45.7314 151.497 45.7314Z" fill="#403D85"/>
<path id="Vector_8" d="M142.487 40.6416C142.967 40.6416 142.967 39.8916 142.487 39.8916C142.007 39.8916 142.007 40.6416 142.487 40.6416Z" fill="#403D85"/>
<path id="Vector_9" d="M161.437 59.5918C161.917 59.5918 161.917 58.8418 161.437 58.8418C160.957 58.8418 160.947 59.5918 161.437 59.5918Z" fill="#403D85"/>
<path id="Vector_10" fill-rule="evenodd" clip-rule="evenodd" d="M111.767 30.5718L112.677 31.0918L111.747 31.5718L111.227 32.4918L110.737 31.5618L109.827 31.0318L110.757 30.5518L111.277 29.6318L111.767 30.5718Z" fill="#403D85"/>
<path id="Vector_11" fill-rule="evenodd" clip-rule="evenodd" d="M158.757 50.8919L159.667 51.4119L158.737 51.9019L158.217 52.8119L157.727 51.8819L156.817 51.3619L157.747 50.8719L158.267 49.9619L158.757 50.8919Z" fill="#403D85"/>
<path id="Vector_12" fill-rule="evenodd" clip-rule="evenodd" d="M122.477 49.3013L123.397 49.8213L122.457 50.3113L121.937 51.2213L121.447 50.2913L120.537 49.7713L121.467 49.2813L121.987 48.3613L122.477 49.3013Z" fill="#403D85"/>
<path id="Vector_13" fill-rule="evenodd" clip-rule="evenodd" d="M127.887 19.9816L129.687 21.0116L127.847 21.9716L126.827 23.7716L125.857 21.9416L124.057 20.9116L125.897 19.9416L126.927 18.1416L127.887 19.9816Z" fill="#403D85"/>
</g>
<g id="Group 2101">
<path id="Vector_14" d="M183.061 99.0977C183.541 99.0977 183.541 99.8477 183.061 99.8477C182.571 99.8477 182.571 99.0977 183.061 99.0977Z" fill="#403D85"/>
<path id="Vector_15" d="M171.971 90.0879C172.451 90.0879 172.451 90.8379 171.971 90.8379C171.491 90.8379 171.491 90.0879 171.971 90.0879Z" fill="#403D85"/>
<path id="Vector_16" d="M194.841 85.6982C195.321 85.6982 195.321 86.4482 194.841 86.4482C194.361 86.4482 194.361 85.6982 194.841 85.6982Z" fill="#403D85"/>
<path id="Vector_17" d="M183.751 86.1582C184.231 86.1582 184.231 86.9082 183.751 86.9082C183.271 86.9082 183.271 86.1582 183.751 86.1582Z" fill="#403D85"/>
<path id="Vector_18" fill-rule="evenodd" clip-rule="evenodd" d="M174.511 99.6977L175.421 99.1777L174.491 98.6977L173.971 97.7777L173.481 98.7077L172.571 99.2377L173.501 99.7177L174.021 100.638L174.511 99.6977Z" fill="#403D85"/>
<path id="Vector_19" fill-rule="evenodd" clip-rule="evenodd" d="M185.221 80.9682L186.141 80.4482L185.201 79.9582L184.681 79.0482L184.191 79.9782L183.281 80.4982L184.211 80.9882L184.731 81.9082L185.221 80.9682Z" fill="#403D85"/>
<path id="Vector_20" fill-rule="evenodd" clip-rule="evenodd" d="M190.631 110.288L192.431 109.258L190.591 108.298L189.571 106.498L188.601 108.328L186.801 109.358L188.641 110.328L189.671 112.128L190.631 110.288Z" fill="#403D85"/>
</g>
<g id="Group 2100">
<path id="Vector_21" d="M41.0117 154.39C41.4917 154.39 41.4917 153.64 41.0117 153.64C40.5217 153.64 40.5217 154.39 41.0117 154.39Z" fill="#403D85"/>
<path id="Vector_22" d="M29.9217 163.399C30.4017 163.399 30.4017 162.649 29.9217 162.649C29.4417 162.649 29.4417 163.399 29.9217 163.399Z" fill="#403D85"/>
<path id="Vector_23" d="M52.7916 167.789C53.2716 167.789 53.2716 167.039 52.7916 167.039C52.3116 167.039 52.3116 167.789 52.7916 167.789Z" fill="#403D85"/>
<path id="Vector_24" d="M41.7017 167.329C42.1817 167.329 42.1817 166.579 41.7017 166.579C41.2217 166.579 41.2217 167.329 41.7017 167.329Z" fill="#403D85"/>
<path id="Vector_25" d="M72.4316 178.879C72.9116 178.879 72.9116 178.129 72.4316 178.129C71.9416 178.129 71.9416 178.879 72.4316 178.879Z" fill="#403D85"/>
<path id="Vector_26" d="M72.1917 168.949C72.6717 168.949 72.6717 168.199 72.1917 168.199C71.7117 168.199 71.7117 168.949 72.1917 168.949Z" fill="#403D85"/>
<path id="Vector_27" d="M63.1817 163.859C63.6617 163.859 63.6617 163.109 63.1817 163.109C62.7017 163.109 62.7017 163.859 63.1817 163.859Z" fill="#403D85"/>
<path id="Vector_28" d="M82.1318 182.81C82.6118 182.81 82.6118 182.06 82.1318 182.06C81.6518 182.06 81.6418 182.81 82.1318 182.81Z" fill="#403D85"/>
<path id="Vector_29" fill-rule="evenodd" clip-rule="evenodd" d="M32.4617 153.79L33.3717 154.31L32.4417 154.79L31.9217 155.71L31.4317 154.78L30.5217 154.25L31.4517 153.77L31.9717 152.85L32.4617 153.79Z" fill="#403D85"/>
<path id="Vector_30" fill-rule="evenodd" clip-rule="evenodd" d="M79.4517 174.11L80.3617 174.63L79.4317 175.12L78.9117 176.03L78.4217 175.1L77.5117 174.58L78.4417 174.09L78.9617 173.18L79.4517 174.11Z" fill="#403D85"/>
<path id="Vector_31" fill-rule="evenodd" clip-rule="evenodd" d="M43.1716 172.519L44.0916 173.039L43.1516 173.529L42.6316 174.439L42.1416 173.509L41.2316 172.989L42.1616 172.499L42.6816 171.579L43.1716 172.519Z" fill="#403D85"/>
<path id="Vector_32" fill-rule="evenodd" clip-rule="evenodd" d="M48.5816 143.199L50.3816 144.229L48.5416 145.189L47.5216 146.989L46.5517 145.159L44.7516 144.129L46.5916 143.159L47.6217 141.359L48.5816 143.199Z" fill="#403D85"/>
</g>
<circle id="Ellipse 109" cx="165.431" cy="39.7917" r="1.48701" fill="url(#paint0_linear)" fill-opacity="0.05"/>
<circle id="Ellipse 110" cx="77.0529" cy="42.7653" r="1.48701" fill="url(#paint1_linear)" fill-opacity="0.05"/>
<circle id="Ellipse 111" cx="27.0299" cy="94.0749" r="1.48701" fill="url(#paint2_linear)" fill-opacity="0.05"/>
<circle id="Ellipse 112" cx="110.354" cy="185.259" r="1.48701" fill="url(#paint3_linear)" fill-opacity="0.05"/>
<circle id="Ellipse 113" cx="174.585" cy="152.463" r="1.48701" fill="url(#paint4_linear)" fill-opacity="0.05"/>
<circle id="Ellipse 114" cx="179.365" cy="61.0788" r="1.48701" fill="url(#paint5_linear)" fill-opacity="0.05"/>
<circle id="Ellipse 115" cx="56.4389" cy="17.9284" r="1.48701" fill="url(#paint6_linear)" fill-opacity="0.05"/>
<circle id="Ellipse 116" cx="25.5429" cy="79.8962" r="1.48701" fill="url(#paint7_linear)" fill-opacity="0.05"/>
<circle id="Ellipse 117" cx="85.3475" cy="170.756" r="1.48701" fill="url(#paint8_linear)" fill-opacity="0.05"/>
<circle id="Ellipse 95" cx="93.1938" cy="16.4411" r="1.48701" fill="#403D85"/>
<circle id="Ellipse 96" cx="54.9518" cy="56.3405" r="1.48701" fill="#403D85"/>
<circle id="Ellipse 97" cx="13.6034" cy="138.612" r="1.48701" fill="#403D85"/>
<circle id="Ellipse 107" cx="123.341" cy="150.975" r="1.48701" fill="#403D85"/>
<circle id="Ellipse 108" opacity="0.8" cx="19.487" cy="80.487" r="1.48701" fill="#403D85"/>
<circle id="Ellipse 98" opacity="0.8" cx="173.098" cy="127.262" r="1.48701" fill="#403D85"/>
<circle id="Ellipse 99" opacity="0.8" cx="52.6641" cy="175.288" r="0.686385" fill="#403D85"/>
<circle id="Ellipse 100" cx="135.251" cy="182.123" r="0.686385" fill="#403D85"/>
<circle id="Ellipse 101" cx="184.957" cy="72.7704" r="0.686385" fill="#403D85"/>
<circle id="Ellipse 102" cx="121.168" cy="7.94615" r="0.686385" fill="#403D85"/>
<circle id="Ellipse 103" opacity="0.8" cx="38.2482" cy="35.9129" r="0.686385" fill="#403D85"/>
<circle id="Ellipse 104" opacity="0.8" cx="127.588" cy="82.0692" r="0.686385" fill="white"/>
<circle id="Ellipse 105" opacity="0.8" cx="7.25908" cy="112.128" r="0.686385" fill="#403D85"/>
<circle id="Ellipse 106" cx="93.4154" cy="193.934" r="0.686385" fill="#403D85"/>
</g>
</g>
<g id="Ellipse 6" filter="url(#filter0_bddddi)">
<circle cx="96.5213" cy="100.94" r="44.0577" fill="#FFC46D"/>
</g>
<g id="Group 4843">
<g id="Group 7">
<circle id="Ellipse 5" cx="105.479" cy="100.94" r="44.0577" fill="url(#paint9_linear)"/>
<path id="Ellipse 6_2" d="M105.479 100.94C105.479 125.273 105.479 125.768 105.479 144.998C81.1462 144.998 61.4209 125.273 61.4209 100.94C61.4209 76.6081 81.1462 56.8828 105.479 56.8828C105.479 78.2368 105.479 76.6081 105.479 100.94Z" fill="url(#paint10_linear)"/>
</g>
<g id="Group 4841">
<path id="Subtract" d="M105.479 144.998C120.519 144.998 132.711 125.273 132.711 100.94C132.711 76.6081 120.519 56.8828 105.479 56.8828C105.479 56.8828 105.479 56.8828 105.479 56.8828L105.479 144.998Z" fill="#4744A0"/>
</g>
</g>
</g>
<defs>
<filter id="filter0_bddddi" x="22.0136" y="4.95281" width="149.015" height="154.273" filterUnits="userSpaceOnUse" color-interpolation-filters="sRGB">
<feFlood flood-opacity="0" result="BackgroundImageFix"/>
<feGaussianBlur in="BackgroundImage" stdDeviation="1.18562"/>
<feComposite in2="SourceAlpha" operator="in" result="effect1_backgroundBlur"/>
<feColorMatrix in="SourceAlpha" type="matrix" values="0 0 0 0 0 0 0 0 0 0 0 0 0 0 0 0 0 0 127 0"/>
<feOffset dx="-4.74248" dy="-4.74248"/>
<feGaussianBlur stdDeviation="3.55686"/>
<feColorMatrix type="matrix" values="0 0 0 0 1 0 0 0 0 1 0 0 0 0 1 0 0 0 0.22 0"/>
<feBlend mode="normal" in2="effect1_backgroundBlur" result="effect2_dropShadow"/>
<feColorMatrix in="SourceAlpha" type="matrix" values="0 0 0 0 0 0 0 0 0 0 0 0 0 0 0 0 0 0 127 0"/>
<feOffset/>
<feGaussianBlur stdDeviation="7.11371"/>
<feColorMatrix type="matrix" values="0 0 0 0 0.121569 0 0 0 0 0.109804 0 0 0 0 0.419608 0 0 0 0.48 0"/>
<feBlend mode="normal" in2="effect2_dropShadow" result="effect3_dropShadow"/>
<feColorMatrix in="SourceAlpha" type="matrix" values="0 0 0 0 0 0 0 0 0 0 0 0 0 0 0 0 0 0 127 0"/>
<feOffset dx="2.37124" dy="7.11371"/>
<feGaussianBlur stdDeviation="2.37124"/>
<feColorMatrix type="matrix" values="0 0 0 0 0.121569 0 0 0 0 0.109804 0 0 0 0 0.419608 0 0 0 0.17 0"/>
<feBlend mode="normal" in2="effect3_dropShadow" result="effect4_dropShadow"/>
<feColorMatrix in="SourceAlpha" type="matrix" values="0 0 0 0 0 0 0 0 0 0 0 0 0 0 0 0 0 0 127 0"/>
<feOffset dy="-21.48"/>
<feGaussianBlur stdDeviation="15.225"/>
<feColorMatrix type="matrix" values="0 0 0 0 0.0936427 0 0 0 0 0.0836458 0 0 0 0 0.304167 0 0 0 1 0"/>
<feBlend mode="normal" in2="effect4_dropShadow" result="effect5_dropShadow"/>
<feBlend mode="normal" in="SourceGraphic" in2="effect5_dropShadow" result="shape"/>
<feColorMatrix in="SourceAlpha" type="matrix" values="0 0 0 0 0 0 0 0 0 0 0 0 0 0 0 0 0 0 127 0" result="hardAlpha"/>
<feOffset dx="-2.37124" dy="-2.37124"/>
<feGaussianBlur stdDeviation="4.74248"/>
<feComposite in2="hardAlpha" operator="arithmetic" k2="-1" k3="1"/>
<feColorMatrix type="matrix" values="0 0 0 0 1 0 0 0 0 0.768627 0 0 0 0 0.427451 0 0 0 1 0"/>
<feBlend mode="normal" in2="shape" result="effect6_innerShadow"/>
</filter>
<linearGradient id="paint0_linear" x1="165.431" y1="41.2787" x2="165.431" y2="38.3047" gradientUnits="userSpaceOnUse">
<stop offset="0.000490735" stop-color="#6050B0"/>
<stop offset="1" stop-color="#351C75"/>
</linearGradient>
<linearGradient id="paint1_linear" x1="77.0529" y1="44.2523" x2="77.0529" y2="41.2783" gradientUnits="userSpaceOnUse">
<stop offset="0.000490735" stop-color="#6050B0"/>
<stop offset="1" stop-color="#351C75"/>
</linearGradient>
<linearGradient id="paint2_linear" x1="27.0299" y1="95.5619" x2="27.0299" y2="92.5879" gradientUnits="userSpaceOnUse">
<stop offset="0.000490735" stop-color="#6050B0"/>
<stop offset="1" stop-color="#351C75"/>
</linearGradient>
<linearGradient id="paint3_linear" x1="110.354" y1="186.746" x2="110.354" y2="183.772" gradientUnits="userSpaceOnUse">
<stop offset="0.000490735" stop-color="#6050B0"/>
<stop offset="1" stop-color="#351C75"/>
</linearGradient>
<linearGradient id="paint4_linear" x1="174.585" y1="153.95" x2="174.585" y2="150.976" gradientUnits="userSpaceOnUse">
<stop offset="0.000490735" stop-color="#6050B0"/>
<stop offset="1" stop-color="#351C75"/>
</linearGradient>
<linearGradient id="paint5_linear" x1="179.365" y1="62.5658" x2="179.365" y2="59.5918" gradientUnits="userSpaceOnUse">
<stop offset="0.000490735" stop-color="#6050B0"/>
<stop offset="1" stop-color="#351C75"/>
</linearGradient>
<linearGradient id="paint6_linear" x1="56.4389" y1="19.4154" x2="56.4389" y2="16.4414" gradientUnits="userSpaceOnUse">
<stop offset="0.000490735" stop-color="#6050B0"/>
<stop offset="1" stop-color="#351C75"/>
</linearGradient>
<linearGradient id="paint7_linear" x1="25.5429" y1="81.3832" x2="25.5429" y2="78.4092" gradientUnits="userSpaceOnUse">
<stop offset="0.000490735" stop-color="#6050B0"/>
<stop offset="1" stop-color="#351C75"/>
</linearGradient>
<linearGradient id="paint8_linear" x1="85.3476" y1="172.243" x2="85.3476" y2="169.269" gradientUnits="userSpaceOnUse">
<stop offset="0.000490735" stop-color="#6050B0"/>
<stop offset="1" stop-color="#351C75"/>
</linearGradient>
<linearGradient id="paint9_linear" x1="66" y1="145" x2="241.98" y2="28.0578" gradientUnits="userSpaceOnUse">
<stop stop-color="#211E74"/>
<stop offset="1" stop-color="#7C78DC"/>
</linearGradient>
<linearGradient id="paint10_linear" x1="10.7881" y1="218.768" x2="316.19" y2="105.595" gradientUnits="userSpaceOnUse">
<stop stop-color="#211E74"/>
<stop offset="1" stop-color="#7C78DC"/>
</linearGradient>
</defs>
</svg>

<svg width="202" height="202" fill="none" xmlns="http://www.w3.org/2000/svg"><circle cx="101" cy="100.94" r="100.502" fill="#131145"/><path fill-rule="evenodd" clip-rule="evenodd" d="M162.45 162.866l1.8-1.03-1.84-.96-1.02-1.8-.97 1.83-1.8 1.03 1.84.97 1.03 1.8.96-1.84z" fill="#403D85"/><g fill="#403D85"><path d="M120.317 31.172c.48 0 .48-.75 0-.75-.49 0-.49.75 0 .75zM109.227 40.182c.48 0 .48-.75 0-.75s-.48.75 0 .75zM132.097 44.571c.48 0 .48-.75 0-.75s-.48.75 0 .75zM121.007 44.111c.48 0 .48-.75 0-.75s-.48.75 0 .75zM151.737 55.661c.48 0 .48-.75 0-.75-.49 0-.49.75 0 .75zM151.497 45.731c.48 0 .48-.75 0-.75s-.48.75 0 .75zM142.487 40.642c.48 0 .48-.75 0-.75s-.48.75 0 .75zM161.437 59.592c.48 0 .48-.75 0-.75s-.49.75 0 .75z"/><path fill-rule="evenodd" clip-rule="evenodd" d="M111.767 30.572l.91.52-.93.48-.52.92-.49-.93-.91-.53.93-.48.52-.92.49.94zM158.757 50.892l.91.52-.93.49-.52.91-.49-.93-.91-.52.93-.49.52-.91.49.93zM122.477 49.301l.92.52-.94.49-.52.91-.49-.93-.91-.52.93-.49.52-.92.49.94zM127.887 19.982l1.8 1.03-1.84.96-1.02 1.8-.97-1.83-1.8-1.03 1.84-.97 1.03-1.8.96 1.84z"/></g><g fill="#403D85"><path d="M183.061 99.098c.48 0 .48.75 0 .75-.49 0-.49-.75 0-.75zM171.971 90.088c.48 0 .48.75 0 .75s-.48-.75 0-.75zM194.841 85.698c.48 0 .48.75 0 .75s-.48-.75 0-.75zM183.751 86.158c.48 0 .48.75 0 .75s-.48-.75 0-.75z"/><path fill-rule="evenodd" clip-rule="evenodd" d="M174.511 99.698l.91-.52-.93-.48-.52-.92-.49.93-.91.53.93.48.52.92.49-.94zM185.221 80.968l.92-.52-.94-.49-.52-.91-.49.93-.91.52.93.49.52.92.49-.94zM190.631 110.288l1.8-1.03-1.84-.96-1.02-1.8-.97 1.83-1.8 1.03 1.84.97 1.03 1.8.96-1.84z"/></g><g fill="#403D85"><path d="M41.012 154.39c.48 0 .48-.75 0-.75-.49 0-.49.75 0 .75zM29.922 163.399c.48 0 .48-.75 0-.75s-.48.75 0 .75zM52.792 167.789c.48 0 .48-.75 0-.75s-.48.75 0 .75zM41.702 167.329c.48 0 .48-.75 0-.75s-.48.75 0 .75zM72.432 178.879c.48 0 .48-.75 0-.75-.49 0-.49.75 0 .75zM72.192 168.949c.48 0 .48-.75 0-.75s-.48.75 0 .75zM63.182 163.859c.48 0 .48-.75 0-.75s-.48.75 0 .75zM82.132 182.81c.48 0 .48-.75 0-.75s-.49.75 0 .75z"/><path fill-rule="evenodd" clip-rule="evenodd" d="M32.462 153.79l.91.52-.93.48-.52.92-.49-.93-.91-.53.93-.48.52-.92.49.94zM79.452 174.11l.91.52-.93.49-.52.91-.49-.93-.91-.52.93-.49.52-.91.49.93zM43.172 172.519l.92.52-.94.49-.52.91-.49-.93-.91-.52.93-.49.52-.92.49.94zM48.582 143.199l1.8 1.03-1.84.96-1.02 1.8-.97-1.83-1.8-1.03 1.84-.97 1.03-1.8.96 1.84z"/></g><circle cx="165.431" cy="39.792" r="1.487" fill="url(#paint0_linear)" fill-opacity=".05"/><circle cx="77.053" cy="42.765" r="1.487" fill="url(#paint1_linear)" fill-opacity=".05"/><circle cx="27.03" cy="94.075" r="1.487" fill="url(#paint2_linear)" fill-opacity=".05"/><circle cx="110.354" cy="185.259" r="1.487" fill="url(#paint3_linear)" fill-opacity=".05"/><circle cx="174.585" cy="152.463" r="1.487" fill="url(#paint4_linear)" fill-opacity=".05"/><circle cx="179.365" cy="61.079" r="1.487" fill="url(#paint5_linear)" fill-opacity=".05"/><circle cx="56.439" cy="17.928" r="1.487" fill="url(#paint6_linear)" fill-opacity=".05"/><circle cx="25.543" cy="79.896" r="1.487" fill="url(#paint7_linear)" fill-opacity=".05"/><circle cx="85.347" cy="170.756" r="1.487" fill="url(#paint8_linear)" fill-opacity=".05"/><circle cx="93.194" cy="16.441" r="1.487" fill="#403D85"/><circle cx="54.952" cy="56.34" r="1.487" fill="#403D85"/><circle cx="13.603" cy="138.612" r="1.487" fill="#403D85"/><circle cx="123.341" cy="150.975" r="1.487" fill="#403D85"/><circle opacity=".8" cx="19.487" cy="80.487" r="1.487" fill="#403D85"/><circle opacity=".8" cx="173.098" cy="127.262" r="1.487" fill="#403D85"/><circle opacity=".8" cx="52.664" cy="175.288" r=".686" fill="#403D85"/><circle cx="135.251" cy="182.123" r=".686" fill="#403D85"/><circle cx="184.957" cy="72.77" r=".686" fill="#403D85"/><circle cx="121.168" cy="7.946" r=".686" fill="#403D85"/><circle opacity=".8" cx="38.248" cy="35.913" r=".686" fill="#403D85"/><circle opacity=".8" cx="127.588" cy="82.069" r=".686" fill="#fff"/><circle opacity=".8" cx="7.259" cy="112.128" r=".686" fill="#403D85"/><circle cx="93.415" cy="193.934" r=".686" fill="#403D85"/><g filter="url(#filter0_bddddi)"><circle cx="96.521" cy="100.94" r="44.058" fill="#FFC46D"/></g><g><circle cx="105.479" cy="100.94" r="44.058" fill="url(#paint9_linear)"/><path d="M105.479 100.94v44.058c-24.333 0-44.058-19.725-44.058-44.058 0-24.332 19.725-44.057 44.058-44.057v44.057z" fill="url(#paint10_linear)"/><g><path d="M105.479 144.998c15.04 0 27.232-19.725 27.232-44.058 0-24.332-12.192-44.057-27.232-44.057v88.115z" fill="#4744A0"/></g></g><defs><linearGradient id="paint0_linear" x1="165.431" y1="41.279" x2="165.431" y2="38.305" gradientUnits="userSpaceOnUse"><stop offset="0" stop-color="#6050B0"/><stop offset="1" stop-color="#351C75"/></linearGradient><linearGradient id="paint1_linear" x1="77.053" y1="44.252" x2="77.053" y2="41.278" gradientUnits="userSpaceOnUse"><stop offset="0" stop-color="#6050B0"/><stop offset="1" stop-color="#351C75"/></linearGradient><linearGradient id="paint2_linear" x1="27.03" y1="95.562" x2="27.03" y2="92.588" gradientUnits="userSpaceOnUse"><stop offset="0" stop-color="#6050B0"/><stop offset="1" stop-color="#351C75"/></linearGradient><linearGradient id="paint3_linear" x1="110.354" y1="186.746" x2="110.354" y2="183.772" gradientUnits="userSpaceOnUse"><stop offset="0" stop-color="#6050B0"/><stop offset="1" stop-color="#351C75"/></linearGradient><linearGradient id="paint4_linear" x1="174.585" y1="153.95" x2="174.585" y2="150.976" gradientUnits="userSpaceOnUse"><stop offset="0" stop-color="#6050B0"/><stop offset="1" stop-color="#351C75"/></linearGradient><linearGradient id="paint5_linear" x1="179.365" y1="62.566" x2="179.365" y2="59.592" gradientUnits="userSpaceOnUse"><stop offset="0" stop-color="#6050B0"/><stop offset="1" stop-color="#351C75"/></linearGradient><linearGradient id="paint6_linear" x1="56.439" y1="19.415" x2="56.439" y2="16.441" gradientUnits="userSpaceOnUse"><stop offset="0" stop-color="#6050B0"/><stop offset="1" stop-color="#351C75"/></linearGradient><linearGradient id="paint7_linear" x1="25.543" y1="81.383" x2="25.543" y2="78.409" gradientUnits="userSpaceOnUse"><stop offset="0" stop-color="#6050B0"/><stop offset="1" stop-color="#351C75"/></linearGradient><linearGradient id="paint8_linear" x1="85.348" y1="172.243" x2="85.348" y2="169.269" gradientUnits="userSpaceOnUse"><stop offset="0" stop-color="#6050B0"/><stop offset="1" stop-color="#351C75"/></linearGradient><linearGradient id="paint9_linear" x1="66" y1="145" x2="241.98" y2="28.058" gradientUnits="userSpaceOnUse"><stop stop-color="#211E74"/><stop offset="1" stop-color="#7C78DC"/></linearGradient><linearGradient id="paint10_linear" x1="10.788" y1="218.768" x2="316.19" y2="105.595" gradientUnits="userSpaceOnUse"><stop stop-color="#211E74"/><stop offset="1" stop-color="#7C78DC"/></linearGradient><filter id="filter0_bddddi" x="22.014" y="4.953" width="149.015" height="154.273" filterUnits="userSpaceOnUse" color-interpolation-filters="sRGB"><feFlood flood-opacity="0" result="BackgroundImageFix"/><feGaussianBlur in="BackgroundImage" stdDeviation="1.186"/><feComposite in2="SourceAlpha" operator="in" result="effect1_backgroundBlur"/><feColorMatrix in="SourceAlpha" values="0 0 0 0 0 0 0 0 0 0 0 0 0 0 0 0 0 0 127 0"/><feOffset dx="-4.742" dy="-4.742"/><feGaussianBlur stdDeviation="3.557"/><feColorMatrix values="0 0 0 0 1 0 0 0 0 1 0 0 0 0 1 0 0 0 0.22 0"/><feBlend in2="effect1_backgroundBlur" result="effect2_dropShadow"/><feColorMatrix in="SourceAlpha" values="0 0 0 0 0 0 0 0 0 0 0 0 0 0 0 0 0 0 127 0"/><feOffset/><feGaussianBlur stdDeviation="7.114"/><feColorMatrix values="0 0 0 0 0.121569 0 0 0 0 0.109804 0 0 0 0 0.419608 0 0 0 0.48 0"/><feBlend in2="effect2_dropShadow" result="effect3_dropShadow"/><feColorMatrix in="SourceAlpha" values="0 0 0 0 0 0 0 0 0 0 0 0 0 0 0 0 0 0 127 0"/><feOffset dx="2.371" dy="7.114"/><feGaussianBlur stdDeviation="2.371"/><feColorMatrix values="0 0 0 0 0.121569 0 0 0 0 0.109804 0 0 0 0 0.419608 0 0 0 0.17 0"/><feBlend in2="effect3_dropShadow" result="effect4_dropShadow"/><feColorMatrix in="SourceAlpha" values="0 0 0 0 0 0 0 0 0 0 0 0 0 0 0 0 0 0 127 0"/><feOffset dy="-21.48"/><feGaussianBlur stdDeviation="15.225"/><feColorMatrix values="0 0 0 0 0.0936427 0 0 0 0 0.0836458 0 0 0 0 0.304167 0 0 0 1 0"/><feBlend in2="effect4_dropShadow" result="effect5_dropShadow"/><feBlend in="SourceGraphic" in2="effect5_dropShadow" result="shape"/><feColorMatrix in="SourceAlpha" values="0 0 0 0 0 0 0 0 0 0 0 0 0 0 0 0 0 0 127 0" result="hardAlpha"/><feOffset dx="-2.371" dy="-2.371"/><feGaussianBlur stdDeviation="4.742"/><feComposite in2="hardAlpha" operator="arithmetic" k2="-1" k3="1"/><feColorMatrix values="0 0 0 0 1 0 0 0 0 0.768627 0 0 0 0 0.427451 0 0 0 1 0"/><feBlend in2="shape" result="effect6_innerShadow"/></filter></defs></svg>
